X: 1157
T:Peeler's Jacket (A67)
N: page A67
N: heptatonic
S:Trad, arr. Paddy O'Brien
R:reel
E:9
I:speed 350
M:C|
K:G
F|:"G"~G2 BG DGBG|"D"FGAB "C"~c2Bc|"G"dggf ~d2eg|"D"fdcA "G"BGAF|
"G"~G2 BG DGBG|"D"FGAB "C"~c2Bc|"G"dggf ~d2eg|\
"D"fdcA "G"BG G2:| gagf "D"~d2 ef|
"G"gfga bgaf|gagf "D"~d2 eg|"D"fdcA "G"BGG2|gagf "D"~d2 ef|
"G"gfga bgaf|gbag fdeg|1 "D"fdcA "G"BGG2:|2 "D"fdcA "C"BcAF|
